svgs/duotone/video.svg

<svg xmlns="http://www.w3.org/2000/svg" viewBox="0 0 576 512"><!-- Font Awesome Pro 6.0.0-alpha2 by @fontawesome - https://fontawesome.com License - https://fontawesome.com/license (Commercial License) --><defs><style>.fa-secondary{opacity:.4}</style></defs><path d="M384 112.001V400.001C384 426.51 362.51 448.001 336 448.001H48C21.49 448.001 0 426.51 0 400.001V112.001C0 85.491 21.49 64.001 48 64.001H336C362.51 64.001 384 85.491 384 112.001Z" class="fa-secondary"/><path d="M576 127.501V384.407C576 409.907 546.812 424.797 525.594 410.204L416 334.704V177.297L525.594 101.704C546.906 87.094 576 102.094 576 127.501Z" class="fa-primary"/></svg>

<svg xmlns="http://www.w3.org/2000/svg" viewBox="0 0 576 512"><!--! Font Awesome Pro 6.0.0-alpha3 by @fontawesome - https://fontawesome.com License - https://fontawesome.com/license (Commercial License) --><defs><style>.fa-secondary{opacity:.4}</style></defs><path class="fa-primary" d="M576 127.5v256.9c0 25.5-29.17 40.39-50.39 25.79L416 334.7V177.3l109.6-75.56C546.9 87.13 576 102.1 576 127.5z"/><path class="fa-secondary" d="M384 112v288c0 26.51-21.49 48-48 48h-288c-26.51 0-48-21.49-48-48v-288c0-26.51 21.49-48 48-48h288C362.5 64 384 85.49 384 112z"/></svg>
